TileServer und Tiles/svg/9/6_6.svg

<?xml version='1.0' encoding='UTF-8' standalone='no'?>
<svg xmlns="http://www.w3.org/2000/svg" width="497pt" viewBox="0 0 497 279" xmlns:xlink="http://www.w3.org/1999/xlink" height="279pt">
 <defs style="stroke:none;" overflow="visible">
  <path id="glyph0-5" d="M 1.84375 0.09375 C 1.4375 0.09375 1.117188 -0.015625 0.890625 -0.234375 C 0.660156 -0.460938 0.546875 -0.789062 0.546875 -1.21875 C 0.546875 -1.375 0.554688 -1.519531 0.578125 -1.65625 C 0.609375 -1.800781 0.632812 -1.945312 0.65625 -2.09375 L 1.34375 -5.359375 L 2.234375 -5.359375 L 1.53125 -2 C 1.5 -1.851562 1.472656 -1.722656 1.453125 -1.609375 C 1.441406 -1.503906 1.4375 -1.398438 1.4375 -1.296875 C 1.4375 -1.097656 1.488281 -0.9375 1.59375 -0.8125 C 1.707031 -0.695312 1.878906 -0.640625 2.109375 -0.640625 C 2.328125 -0.640625 2.554688 -0.71875 2.796875 -0.875 C 3.035156 -1.039062 3.257812 -1.289062 3.46875 -1.625 C 3.6875 -1.96875 3.847656 -2.40625 3.953125 -2.9375 L 4.484375 -5.359375 L 5.359375 -5.359375 L 4.640625 -2 C 4.578125 -1.695312 4.546875 -1.476562 4.546875 -1.34375 C 4.546875 -1.125 4.59375 -0.953125 4.6875 -0.828125 C 4.789062 -0.703125 4.960938 -0.640625 5.203125 -0.640625 C 5.421875 -0.640625 5.648438 -0.71875 5.890625 -0.875 C 6.140625 -1.03125 6.367188 -1.285156 6.578125 -1.640625 C 6.796875 -1.992188 6.96875 -2.460938 7.09375 -3.046875 L 7.578125 -5.359375 L 8.453125 -5.359375 L 7.3125 0 L 6.59375 0 L 6.703125 -0.984375 L 6.65625 -0.984375 C 6.539062 -0.828125 6.398438 -0.660156 6.234375 -0.484375 C 6.066406 -0.316406 5.875 -0.175781 5.65625 -0.0625 C 5.445312 0.0390625 5.207031 0.09375 4.9375 0.09375 C 4.570312 0.09375 4.289062 -0.0078125 4.09375 -0.21875 C 3.894531 -0.4375 3.773438 -0.726562 3.734375 -1.09375 L 3.6875 -1.09375 C 3.550781 -0.894531 3.394531 -0.703125 3.21875 -0.515625 C 3.039062 -0.335938 2.835938 -0.191406 2.609375 -0.078125 C 2.378906 0.0351562 2.125 0.09375 1.84375 0.09375 Z M 1.84375 0.09375 "/>
  <path id="glyph0-4" d="M 1.9375 0.09375 C 1.507812 0.09375 1.160156 -0.0546875 0.890625 -0.359375 C 0.617188 -0.671875 0.484375 -1.128906 0.484375 -1.734375 C 0.484375 -2.234375 0.546875 -2.707031 0.671875 -3.15625 C 0.804688 -3.601562 0.988281 -4 1.21875 -4.34375 C 1.445312 -4.6875 1.722656 -4.957031 2.046875 -5.15625 C 2.367188 -5.351562 2.722656 -5.453125 3.109375 -5.453125 C 3.460938 -5.453125 3.75 -5.359375 3.96875 -5.171875 C 4.1875 -4.992188 4.347656 -4.78125 4.453125 -4.53125 L 4.515625 -4.53125 L 4.828125 -5.359375 L 5.5 -5.359375 L 4.359375 0 L 3.65625 0 L 3.796875 -0.984375 L 3.75 -0.984375 C 3.519531 -0.691406 3.25 -0.4375 2.9375 -0.21875 C 2.632812 -0.0078125 2.300781 0.09375 1.9375 0.09375 Z M 2.21875 -0.625 C 2.46875 -0.625 2.707031 -0.710938 2.9375 -0.890625 C 3.175781 -1.078125 3.390625 -1.320312 3.578125 -1.625 C 3.773438 -1.9375 3.925781 -2.28125 4.03125 -2.65625 C 4.082031 -2.851562 4.113281 -3.03125 4.125 -3.1875 C 4.144531 -3.351562 4.15625 -3.507812 4.15625 -3.65625 C 4.15625 -3.96875 4.066406 -4.222656 3.890625 -4.421875 C 3.722656 -4.617188 3.492188 -4.71875 3.203125 -4.71875 C 2.941406 -4.71875 2.703125 -4.632812 2.484375 -4.46875 C 2.265625 -4.3125 2.070312 -4.085938 1.90625 -3.796875 C 1.738281 -3.515625 1.609375 -3.191406 1.515625 -2.828125 C 1.421875 -2.472656 1.375 -2.097656 1.375 -1.703125 C 1.375 -1.347656 1.445312 -1.078125 1.59375 -0.890625 C 1.738281 -0.710938 1.945312 -0.625 2.21875 -0.625 Z M 2.21875 -0.625 "/>
  <path id="glyph0-3" d="M 2.59375 0.09375 C 1.851562 0.09375 1.316406 -0.101562 0.984375 -0.5 C 0.648438 -0.90625 0.484375 -1.441406 0.484375 -2.109375 C 0.484375 -2.734375 0.59375 -3.296875 0.8125 -3.796875 C 1.039062 -4.304688 1.363281 -4.707031 1.78125 -5 C 2.207031 -5.300781 2.71875 -5.453125 3.3125 -5.453125 C 3.894531 -5.453125 4.34375 -5.335938 4.65625 -5.109375 C 4.96875 -4.878906 5.125 -4.539062 5.125 -4.09375 C 5.125 -3.695312 4.992188 -3.390625 4.734375 -3.171875 C 4.484375 -2.953125 4.160156 -2.796875 3.765625 -2.703125 L 3.765625 -2.6875 C 4.054688 -2.613281 4.296875 -2.488281 4.484375 -2.3125 C 4.671875 -2.144531 4.765625 -1.890625 4.765625 -1.546875 C 4.765625 -1.304688 4.695312 -1.054688 4.5625 -0.796875 C 4.425781 -0.535156 4.195312 -0.320312 3.875 -0.15625 C 3.5625 0.0078125 3.132812 0.09375 2.59375 0.09375 Z M 1.46875 -3.03125 L 2.5625 -3.03125 C 2.851562 -3.03125 3.125 -3.054688 3.375 -3.109375 C 3.632812 -3.171875 3.84375 -3.273438 4 -3.421875 C 4.15625 -3.566406 4.234375 -3.757812 4.234375 -4 C 4.234375 -4.195312 4.160156 -4.363281 4.015625 -4.5 C 3.878906 -4.644531 3.648438 -4.71875 3.328125 -4.71875 C 2.859375 -4.71875 2.460938 -4.570312 2.140625 -4.28125 C 1.816406 -3.988281 1.59375 -3.570312 1.46875 -3.03125 Z M 2.65625 -0.625 C 3.09375 -0.625 3.410156 -0.71875 3.609375 -0.90625 C 3.816406 -1.09375 3.921875 -1.3125 3.921875 -1.5625 C 3.921875 -1.8125 3.816406 -2 3.609375 -2.125 C 3.398438 -2.25 3.070312 -2.3125 2.625 -2.3125 L 1.375 -2.3125 L 1.375 -2.078125 C 1.375 -1.566406 1.488281 -1.195312 1.71875 -0.96875 C 1.945312 -0.738281 2.257812 -0.625 2.65625 -0.625 Z M 2.65625 -0.625 "/>
  <path id="glyph0-2" d="M 1.890625 0.09375 C 1.484375 0.09375 1.15625 -0.015625 0.90625 -0.234375 C 0.664062 -0.460938 0.546875 -0.796875 0.546875 -1.234375 C 0.546875 -1.378906 0.554688 -1.519531 0.578125 -1.65625 C 0.609375 -1.800781 0.632812 -1.945312 0.65625 -2.09375 L 1.359375 -5.359375 L 2.25 -5.359375 L 1.53125 -1.984375 C 1.46875 -1.703125 1.4375 -1.476562 1.4375 -1.3125 C 1.4375 -1.101562 1.488281 -0.9375 1.59375 -0.8125 C 1.707031 -0.6875 1.890625 -0.625 2.140625 -0.625 C 2.367188 -0.625 2.613281 -0.703125 2.875 -0.859375 C 3.132812 -1.023438 3.378906 -1.285156 3.609375 -1.640625 C 3.835938 -1.992188 4.015625 -2.460938 4.140625 -3.046875 L 4.625 -5.359375 L 5.5 -5.359375 L 4.359375 0 L 3.640625 0 L 3.75 -0.984375 L 3.703125 -0.984375 C 3.578125 -0.828125 3.425781 -0.660156 3.25 -0.484375 C 3.082031 -0.316406 2.882812 -0.175781 2.65625 -0.0625 C 2.4375 0.0390625 2.179688 0.09375 1.890625 0.09375 Z M 1.890625 0.09375 "/>
  <path id="glyph0-1" d="M 3.265625 0.09375 C 2.460938 0.09375 1.835938 -0.144531 1.390625 -0.625 C 0.941406 -1.113281 0.71875 -1.78125 0.71875 -2.625 C 0.71875 -3.050781 0.765625 -3.484375 0.859375 -3.921875 C 0.960938 -4.367188 1.113281 -4.785156 1.3125 -5.171875 C 1.519531 -5.566406 1.78125 -5.921875 2.09375 -6.234375 C 2.40625 -6.546875 2.765625 -6.789062 3.171875 -6.96875 C 3.585938 -7.144531 4.054688 -7.234375 4.578125 -7.234375 C 5.242188 -7.234375 5.820312 -7.101562 6.3125 -6.84375 L 5.953125 -6.09375 C 5.773438 -6.1875 5.570312 -6.269531 5.34375 -6.34375 C 5.125 -6.414062 4.867188 -6.453125 4.578125 -6.453125 C 4.078125 -6.453125 3.644531 -6.335938 3.28125 -6.109375 C 2.914062 -5.890625 2.613281 -5.59375 2.375 -5.21875 C 2.132812 -4.851562 1.957031 -4.445312 1.84375 -4 C 1.726562 -3.550781 1.671875 -3.101562 1.671875 -2.65625 C 1.671875 -2.039062 1.820312 -1.554688 2.125 -1.203125 C 2.4375 -0.859375 2.867188 -0.6875 3.421875 -0.6875 C 3.691406 -0.6875 3.957031 -0.710938 4.21875 -0.765625 C 4.488281 -0.816406 4.75 -0.890625 5 -0.984375 L 5 -0.203125 C 4.738281 -0.109375 4.472656 -0.0351562 4.203125 0.015625 C 3.941406 0.0664062 3.628906 0.09375 3.265625 0.09375 Z M 3.265625 0.09375 "/>
  <path id="glyph0-0" d="M 0.9375 0 L 0.9375 -7.140625 L 5.046875 -7.140625 L 5.046875 0 Z M 1.453125 -0.515625 L 4.546875 -0.515625 L 4.546875 -6.625 L 1.453125 -6.625 Z M 1.453125 -0.515625 "/>
 </defs>
 <image width="497" xlink:href="svg/9/6_6.jpg" height="279"/>
 <g>
  <path d="M 203.871094 98.277344 C 203.066406 98.277344 202.441406 98.039062 201.996094 97.558594 C 201.546875 97.070312 201.324219 96.402344 201.324219 95.558594 C 201.324219 95.132812 201.371094 94.699219 201.464844 94.261719 C 201.566406 93.816406 201.71875 93.398438 201.917969 93.011719 C 202.125 92.617188 202.386719 92.261719 202.699219 91.949219 C 203.011719 91.636719 203.371094 91.394531 203.777344 91.214844 C 204.191406 91.039062 204.660156 90.949219 205.183594 90.949219 C 205.847656 90.949219 206.425781 91.082031 206.917969 91.339844 L 206.558594 92.089844 C 206.378906 91.996094 206.175781 91.914062 205.949219 91.839844 C 205.730469 91.769531 205.472656 91.730469 205.183594 91.730469 C 204.683594 91.730469 204.25 91.847656 203.886719 92.074219 C 203.519531 92.292969 203.21875 92.589844 202.980469 92.964844 C 202.738281 93.332031 202.5625 93.738281 202.449219 94.183594 C 202.332031 94.632812 202.277344 95.082031 202.277344 95.527344 C 202.277344 96.144531 202.425781 96.628906 202.730469 96.980469 C 203.042969 97.324219 203.472656 97.496094 204.027344 97.496094 C 204.296875 97.496094 204.5625 97.472656 204.824219 97.417969 C 205.09375 97.367188 205.355469 97.292969 205.605469 97.199219 L 205.605469 97.980469 C 205.34375 98.074219 205.078125 98.148438 204.808594 98.199219 C 204.546875 98.25 204.234375 98.277344 203.871094 98.277344 Z M 203.871094 98.277344 " transform=" rotate(  340 214.915 95.1832) " style="fill:none;stroke-width:2;stroke-linecap:butt;stroke-linejoin:round;stroke:rgb(100%,100%,100%);stroke-opacity:0.6;stroke-miterlimit:10;"/>
  <path d="M 208.367188 98.277344 C 207.960938 98.277344 207.632812 98.167969 207.382812 97.949219 C 207.140625 97.722656 207.023438 97.386719 207.023438 96.949219 C 207.023438 96.804688 207.03125 96.664062 207.054688 96.527344 C 207.085938 96.382812 207.109375 96.238281 207.132812 96.089844 L 207.835938 92.824219 L 208.726562 92.824219 L 208.007812 96.199219 C 207.945312 96.480469 207.914062 96.707031 207.914062 96.871094 C 207.914062 97.082031 207.964844 97.246094 208.070312 97.371094 C 208.183594 97.496094 208.367188 97.558594 208.617188 97.558594 C 208.84375 97.558594 209.089844 97.480469 209.351562 97.324219 C 209.609375 97.160156 209.855469 96.898438 210.085938 96.542969 C 210.3125 96.191406 210.492188 95.722656 210.617188 95.136719 L 211.101562 92.824219 L 211.976562 92.824219 L 210.835938 98.183594 L 210.117188 98.183594 L 210.226562 97.199219 L 210.179688 97.199219 C 210.054688 97.355469 209.902344 97.523438 209.726562 97.699219 C 209.558594 97.867188 209.359375 98.007812 209.132812 98.121094 C 208.914062 98.222656 208.65625 98.277344 208.367188 98.277344 Z M 208.367188 98.277344 " transform=" rotate(  340 214.915 95.1832) " style="fill:none;stroke-width:2;stroke-linecap:butt;stroke-linejoin:round;stroke:rgb(100%,100%,100%);stroke-opacity:0.6;stroke-miterlimit:10;"/>
  <path d="M 214.859375 98.277344 C 214.117188 98.277344 213.582031 98.082031 213.25 97.683594 C 212.914062 97.277344 212.75 96.742188 212.75 96.074219 C 212.75 95.449219 212.859375 94.886719 213.078125 94.386719 C 213.304688 93.878906 213.628906 93.476562 214.046875 93.183594 C 214.472656 92.882812 214.984375 92.730469 215.578125 92.730469 C 216.160156 92.730469 216.609375 92.847656 216.921875 93.074219 C 217.234375 93.304688 217.390625 93.644531 217.390625 94.089844 C 217.390625 94.488281 217.257812 94.792969 217 95.011719 C 216.75 95.230469 216.425781 95.386719 216.03125 95.480469 L 216.03125 95.496094 C 216.320312 95.570312 216.5625 95.695312 216.75 95.871094 C 216.9375 96.039062 217.03125 96.292969 217.03125 96.636719 C 217.03125 96.878906 216.960938 97.128906 216.828125 97.386719 C 216.691406 97.648438 216.460938 97.863281 216.140625 98.027344 C 215.828125 98.191406 215.398438 98.277344 214.859375 98.277344 Z M 213.734375 95.152344 L 214.828125 95.152344 C 215.117188 95.152344 215.390625 95.128906 215.640625 95.074219 C 215.898438 95.011719 216.109375 94.910156 216.265625 94.761719 C 216.421875 94.617188 216.5 94.425781 216.5 94.183594 C 216.5 93.988281 216.425781 93.820312 216.28125 93.683594 C 216.144531 93.539062 215.914062 93.464844 215.59375 93.464844 C 215.125 93.464844 214.726562 93.613281 214.40625 93.902344 C 214.082031 94.195312 213.859375 94.613281 213.734375 95.152344 Z M 214.921875 97.558594 C 215.359375 97.558594 215.675781 97.464844 215.875 97.277344 C 216.082031 97.089844 216.1875 96.871094 216.1875 96.621094 C 216.1875 96.371094 216.082031 96.183594 215.875 96.058594 C 215.664062 95.933594 215.335938 95.871094 214.890625 95.871094 L 213.640625 95.871094 L 213.640625 96.105469 C 213.640625 96.617188 213.753906 96.988281 213.984375 97.214844 C 214.210938 97.445312 214.523438 97.558594 214.921875 97.558594 Z M 214.921875 97.558594 " transform=" rotate(  340 214.915 95.1832) " style="fill:none;stroke-width:2;stroke-linecap:butt;stroke-linejoin:round;stroke:rgb(100%,100%,100%);stroke-opacity:0.6;stroke-miterlimit:10;"/>
  <path d="M 219.613281 98.277344 C 219.183594 98.277344 218.835938 98.128906 218.566406 97.824219 C 218.292969 97.511719 218.160156 97.054688 218.160156 96.449219 C 218.160156 95.949219 218.222656 95.476562 218.347656 95.027344 C 218.480469 94.582031 218.664062 94.183594 218.894531 93.839844 C 219.121094 93.496094 219.398438 93.226562 219.722656 93.027344 C 220.042969 92.832031 220.398438 92.730469 220.785156 92.730469 C 221.136719 92.730469 221.425781 92.824219 221.644531 93.011719 C 221.863281 93.191406 222.023438 93.402344 222.128906 93.652344 L 222.191406 93.652344 L 222.503906 92.824219 L 223.175781 92.824219 L 222.035156 98.183594 L 221.332031 98.183594 L 221.472656 97.199219 L 221.425781 97.199219 C 221.195312 97.492188 220.925781 97.746094 220.613281 97.964844 C 220.308594 98.175781 219.976562 98.277344 219.613281 98.277344 Z M 219.894531 97.558594 C 220.144531 97.558594 220.382812 97.472656 220.613281 97.292969 C 220.851562 97.105469 221.066406 96.863281 221.253906 96.558594 C 221.449219 96.246094 221.601562 95.902344 221.707031 95.527344 C 221.757812 95.332031 221.789062 95.152344 221.800781 94.996094 C 221.820312 94.832031 221.832031 94.675781 221.832031 94.527344 C 221.832031 94.214844 221.742188 93.960938 221.566406 93.761719 C 221.398438 93.566406 221.167969 93.464844 220.878906 93.464844 C 220.617188 93.464844 220.378906 93.550781 220.160156 93.714844 C 219.941406 93.871094 219.746094 94.097656 219.582031 94.386719 C 219.414062 94.667969 219.285156 94.992188 219.191406 95.355469 C 219.097656 95.710938 219.050781 96.085938 219.050781 96.480469 C 219.050781 96.835938 219.121094 97.105469 219.269531 97.292969 C 219.414062 97.472656 219.621094 97.558594 219.894531 97.558594 Z M 219.894531 97.558594 " transform=" rotate(  340 214.915 95.1832) " style="fill:none;stroke-width:2;stroke-linecap:butt;stroke-linejoin:round;stroke:rgb(100%,100%,100%);stroke-opacity:0.6;stroke-miterlimit:10;"/>
  <path d="M 225.199219 98.277344 C 224.792969 98.277344 224.472656 98.167969 224.246094 97.949219 C 224.015625 97.722656 223.902344 97.394531 223.902344 96.964844 C 223.902344 96.808594 223.910156 96.664062 223.933594 96.527344 C 223.964844 96.382812 223.988281 96.238281 224.011719 96.089844 L 224.699219 92.824219 L 225.589844 92.824219 L 224.886719 96.183594 C 224.855469 96.332031 224.828125 96.460938 224.808594 96.574219 C 224.796875 96.679688 224.792969 96.785156 224.792969 96.886719 C 224.792969 97.085938 224.84375 97.246094 224.949219 97.371094 C 225.0625 97.488281 225.234375 97.542969 225.464844 97.542969 C 225.683594 97.542969 225.910156 97.464844 226.152344 97.308594 C 226.390625 97.144531 226.613281 96.894531 226.824219 96.558594 C 227.042969 96.214844 227.203125 95.777344 227.308594 95.246094 L 227.839844 92.824219 L 228.714844 92.824219 L 227.996094 96.183594 C 227.933594 96.488281 227.902344 96.707031 227.902344 96.839844 C 227.902344 97.058594 227.949219 97.230469 228.042969 97.355469 C 228.144531 97.480469 228.316406 97.542969 228.558594 97.542969 C 228.777344 97.542969 229.003906 97.464844 229.246094 97.308594 C 229.496094 97.152344 229.722656 96.898438 229.933594 96.542969 C 230.152344 96.191406 230.324219 95.722656 230.449219 95.136719 L 230.933594 92.824219 L 231.808594 92.824219 L 230.667969 98.183594 L 229.949219 98.183594 L 230.058594 97.199219 L 230.011719 97.199219 C 229.894531 97.355469 229.753906 97.523438 229.589844 97.699219 C 229.421875 97.867188 229.230469 98.007812 229.011719 98.121094 C 228.800781 98.222656 228.5625 98.277344 228.292969 98.277344 C 227.925781 98.277344 227.644531 98.175781 227.449219 97.964844 C 227.25 97.746094 227.128906 97.457031 227.089844 97.089844 L 227.042969 97.089844 C 226.90625 97.289062 226.75 97.480469 226.574219 97.667969 C 226.394531 97.847656 226.191406 97.992188 225.964844 98.105469 C 225.734375 98.21875 225.480469 98.277344 225.199219 98.277344 Z M 225.199219 98.277344 " transform=" rotate(  340 214.915 95.1832) " style="fill:none;stroke-width:2;stroke-linecap:butt;stroke-linejoin:round;stroke:rgb(100%,100%,100%);stroke-opacity:0.6;stroke-miterlimit:10;"/>
  <g transform=" rotate(  340 214.915 95.1832) " style="fill:rgb(30.196078%,50.196078%,70.196078%);fill-opacity:1;">
   <use xlink:href="#glyph0-1" y="98.183196" x="200.605364"/>
   <use xlink:href="#glyph0-2" y="98.183196" x="206.475364"/>
   <use xlink:href="#glyph0-3" y="98.183196" x="212.265364"/>
   <use xlink:href="#glyph0-4" y="98.183196" x="217.675364"/>
   <use xlink:href="#glyph0-5" y="98.183196" x="223.355364"/>
  </g>
 </g>
</svg>

<svg xmlns="http://www.w3.org/2000/svg" xmlns:xlink="http://www.w3.org/1999/xlink" viewBox="0 0 497 279"> <defs overflow="visible" style="stroke:none">  <path id="e" d="M1.8 0c-.4 0-.7 0-1-.1C.8-.5.6-.8.6-1.2v-.5L.8-2l.5-3.4h1L1.4-2v1.2l.8.2c.1 0 .4-.1.6-.4l.7-.6L4-3l.5-2.4h.9L4.6-2v1.2l.7.2.6-.4.7-.6L7-3l.6-2.4h.9L7.3 0h-.7l.1-1-.5.5-.5.5-.8.1c-.3-.1-.6-.1-.8-.3-.2-.2-.3-.5-.4-.9l-.5.6-.6.4-.8.2Zm0 0"/>  <path id="d" d="M2 0c-.6 0-.9 0-1.2-.3C.6-.7.5-1 .5-1.7c0-.5 0-1 .2-1.5l.5-1.1c.2-.4.5-.7.8-.9a2 2 0 0 1 1.1-.3c.4 0 .6.1.9.3l.5.7.3-.9h.7L4.4 0h-.7l.1-1c-.3.3-.5.6-.9.8-.3.2-.6.2-.9.2Zm.1-.5c.4-.1.6-.2.9-.5l.6-.6a4 4 0 0 0 .4-1 3 3 0 0 0 .1-.7 4 4 0 0 0 0-.4c.1-.3.1-.5-.1-.7-.3-.2-.5-.3-.8-.3-.3 0-.5 0-.7.2a2 2 0 0 0-.6.7l-.4 1-.1 1.1c0 .4 0 .6.2.8.1.2.3.3.6.3Zm.1-.1"/>  <path id="c" d="M2.6 0C1.9 0 1.3 0 1-.4.6-.9.5-1.5.5-2.1c0-.6 0-1.2.3-1.7.2-.5.6-1 1-1.2.4-.3 1-.5 1.5-.5.7 0 1 .2 1.4.5.3 0 .3.5.3.9s0 .7-.3 1.1l-1 .2c.5.1.7.3.9.5.1.2.2.3.2.8l-.2.7c-.2.3-.4.5-.7.6-.3.2-.9.3-1.3.3ZM1.5-3h1l1-.1.5-.3c.2-.2.2-.4.2-.6 0-.2 0-.4-.2-.5l-.7-.2c-.3 0-.8.1-1.2.4-.3.3-.5.7-.6 1.3ZM2.7-.6c.3 0 .7-.1 1-.4l.1-.6C4-1.8 4-2 3.6-2l-1-.3H1.4v.2c0 .5 0 .9.3 1.1.3.3.6.4 1 .4Zm0 0"/>  <path id="b" d="M1.9 0c-.4 0-.7 0-1-.1C.7-.5.5-.8.5-1.2v-.5L.8-2l.6-3.4h.9L1.4-2v1.2l.8.2c.2 0 .4-.1.8-.4l.6-.6.5-1.4.5-2.4h.9L4.4 0h-.8l.1-1-.5.5-.4.5-.9.1Zm0 0"/>  <path id="a" d="M3.3 0c-.8 0-1.5 0-2-.5C1-1.1.8-1.8.8-2.6.7-3.1.7-3.5 1-4c-.1-.4 0-.8.3-1.2l.8-1L3-7l1.7-.2c.5 0 1.1.1 1.6.4l-.3.7a4 4 0 0 0-.7-.2l-.7-.2c-.6 0-1 .2-1.3.5-.4 0-.7.4-1 .8A4 4 0 0 0 1.9-4l-.2 1.3c0 .7.1 1.1.3 1.5.4.3 1 .5 1.4.5h.8L5-1v.8l-.8.2a5 5 0 0 1-1 0Zm0 0"/>  <path d="M1 0v-7.1h4V0Zm.4-.5h3.1v-6.1h-3Zm.1 0"/> </defs> <image xlink:href="svg/9/6_6.jpg" width="497" height="279"/> <path d="M203.9 98.3c-.9 0-1.5-.3-1.9-.7-.5-.6-.7-1.2-.7-2 0-.6 0-.9.2-1.3 0-.5.2-.9.4-1.3l.8-1c.3-.5.7-.7 1-.9l1.6-.1c.5 0 1.1.1 1.6.3l-.3.8a4 4 0 0 0-.7-.3h-.7c-.5-.1-1-.1-1.3.2-.4.3-.7.6-1 1a4 4 0 0 0-.4 1.2l-.2 1.3c0 .6.1 1.1.4 1.5.3.3.8.5 1.3.5h.8l.8-.4v.9l-.8.2a5 5 0 0 1-1 0Zm4.5 0c-.4 0-.8-.1-1-.4-.4-.2-.4-.5-.4-.9v-.5l.2-.4.6-3.3h1l-.8 3.4v1.2l.7.2.7-.3c.2-.1.5-.3.6-.8.3-.3.5-.8.6-1.4l.5-2.3h.9l-1.2 5.4h-.7l.1-1-.5.5c-.1.2-.3.3-.6.4l-.7.2Zm6.5 0c-.9 0-1.3-.3-1.7-.6-.2-.4-.4-1-.4-1.7 0-.6 0-1.1.2-1.6.3-.5.6-1 1-1.2.4-.3 1-.5 1.5-.5s1.1.1 1.4.4c.3.2.5.5.5.9 0 .5-.1.8-.4 1l-1 .4c.3.1.6.3.8.5l.2.7c0 .4 0 .5-.2.8-.1.2-.3.5-.7.6-.3.2-.7.3-1.1.3Zm-1.2-3.1h1.1l.8-.2c.4 0 .5-.1.7-.2l.2-.6c0-.2 0-.4-.2-.5-.3-.2-.4-.2-.7-.2-.6 0-.9.1-1.2.4-.3.3-.4.7-.7 1.3Zm1.3 2.4c.4 0 .7-.1 1-.3 0-.3.2-.4.2-.7 0-.2-.2-.4-.3-.5-.2-.2-.6-.2-1-.2h-1.3v.1c0 .6.2 1 .4 1.2.2.2.5.4 1 .4Zm4.6.7c-.4 0-.8-.3-1-.5-.3-.3-.4-.7-.4-1.4l.1-1.4.7-1.2.7-.8a2 2 0 0 1 1-.3c.5 0 .8.1 1.1.3l.2.7.6-.9h.6l-1.2 5.4h-.7l.2-1-1 .8c-.2.2-.5.3-.9.3Zm.4-.7s.4-.1.6-.3l.7-.7a4 4 0 0 0 .4-1 3 3 0 0 0 .1-.6 4 4 0 0 0 0-.5c0-.3 0-.5-.2-.7-.2-.2-.4-.3-.7-.3-.3 0-.5 0-.7.2a2 2 0 0 0-.6.7l-.4 1-.2 1c0 .5 0 .8.3 1 .1.1.3.2.6.2Zm5.2.7c-.4 0-.7-.1-1-.4-.2-.2-.2-.5-.2-.9v-.9l.7-3.3h.9l-.7 3.4v.4l-.2.3.2.5.6.1c.2 0 .4 0 .7-.2l.6-.7c.2-.4.4-.8.5-1.4l.5-2.4h1l-.8 3.4-.1.6.1.6.6.1c.2 0 .4 0 .6-.2.3-.1.5-.3.8-.8.2-.3.3-.8.4-1.4l.6-2.3h1l-1.4 5.4h-.7l.2-1-.6.5-.5.4-.7.2c-.4 0-.7-.1-.9-.3-.2-.3-.3-.5-.3-1l-.6.8-.5.2-.8.3Zm0 0" style="fill:none;stroke-width:2;stroke-linecap:butt;stroke-linejoin:round;stroke:#fff;stroke-opacity:.6;stroke-miterlimit:10" transform=" rotate(  340 214.915 95.1832) "/> <g style="fill:#4d80b3;fill-opacity:1" transform=" rotate(  340 214.915 95.1832) ">  <use xlink:href="#a" x="200.6" y="98.2"/>  <use xlink:href="#b" x="206.5" y="98.2"/>  <use xlink:href="#c" x="212.3" y="98.2"/>  <use xlink:href="#d" x="217.7" y="98.2"/>  <use xlink:href="#e" x="223.4" y="98.2"/> </g></svg>
